front/svg/symbols/main/comments.svg

<?xml version="1.0" encoding="UTF-8" standalone="no"?>
<svg width="24px" height="20px" viewBox="0 0 24 20" version="1.1" xmlns="http://www.w3.org/2000/svg">
	<g>
		<path d="M23.473359,8.09393569 C23.9200415,4.23947904 20.3990377,0.675132275 15.6094297,0.133333333 C12.6760644,-0.198453398 9.9486622,0.681644282 8.17158668,2.2982499 C8.5703184,2.25950346 8.97130284,2.23606024 9.36778184,2.23606024 C11.7469777,2.23606024 14.0286628,2.94261294 15.7915784,4.22612943 C17.6590846,5.58551079 18.8221326,7.4958079 19.0660701,9.6037444 C19.2832969,11.4792023 18.74554,13.3901506 17.5528848,15.015873 C20.0112477,16.8786325 22.2626821,16.3785104 21.7397288,15.9793244 C20.2789998,14.8647945 19.968446,13.7769638 20.0604858,12.9229141 C21.9389338,11.8428978 23.2374669,10.1318681 23.473359,8.09393569"></path>
		<path d="M17.6214319,9.77533578 C17.2140112,6.25299145 13.635402,3.70744811 9.36778184,3.70744811 C8.96422286,3.70744811 8.55487116,3.73024013 8.14133584,3.77680098 C3.35204973,4.31892552 -0.16895412,7.88294668 0.277406574,11.7374033 C0.513620524,13.7756614 1.81150998,15.4863655 3.69027979,16.5663818 C3.78264137,17.4201058 3.47240943,18.5085877 2.01103675,19.6231176 C1.77804097,19.8008954 2.09599654,19.9988604 2.73737855,19.9988604 C3.73887421,19.9988604 5.52817879,19.5166463 7.24282174,17.7248677 C7.66665522,17.7772894 8.10046504,17.8043142 8.54135484,17.8043142 C8.94201746,17.8043142 9.34782917,17.7818478 9.7578245,17.7356125 C14.5474324,17.1938136 18.0677926,13.6297924 17.6214319,9.77533578"></path>
	</g>
</svg>

<svg width="24" height="20" viewBox="0 0 24 20" xmlns="http://www.w3.org/2000/svg"><path d="M23.47 8.1C23.92 4.23 20.4.67 15.6.12 12.7-.2 9.96.68 8.18 2.3c.4-.04.8-.06 1.2-.06 2.38 0 4.66.7 6.42 2 1.86 1.35 3.02 3.26 3.27 5.36.2 1.88-.32 3.8-1.52 5.42 2.46 1.86 4.7 1.36 4.2.96-1.47-1.12-1.78-2.2-1.7-3.06 1.9-1.08 3.2-2.8 3.42-4.83"/><path d="M17.62 9.78c-.4-3.53-3.98-6.07-8.25-6.07-.4 0-.82.03-1.23.08-4.8.54-8.3 4.1-7.86 7.96.23 2.04 1.53 3.75 3.4 4.83.1.85-.2 1.94-1.67 3.05-.22.18.1.38.74.38 1 0 2.8-.48 4.5-2.28.43.06.86.08 1.3.08.4 0 .8-.02 1.22-.06 4.8-.55 8.3-4.1 7.86-7.96"/></svg>
